icons/4_Outdated/VK v1.svg

<svg xmlns="http://www.w3.org/2000/svg" viewBox="0 0 1024 1024">
   <circle cx="512" cy="512" r="512" style="fill:#4680c2"/>
   <path d="M585.8 271.5H438.2c-134.8 0-166.7 31.9-166.7 166.7v147.7c0 134.8 31.9 166.7 166.7 166.7h147.7c134.8 0 166.7-31.9 166.7-166.7V438.2c-.1-134.8-32.3-166.7-166.8-166.7zm74 343.2h-35c-13.2 0-17.3-10.5-41.1-34.6-20.7-20-29.9-22.7-35-22.7-7.1 0-9.2 2-9.2 11.9v31.6c0 8.5-2.7 13.6-25.1 13.6-37 0-78.1-22.4-106.9-64.2-43.4-61.1-55.3-106.9-55.3-116.4 0-5.1 2-9.8 11.9-9.8h35c8.8 0 12.2 4.1 15.6 13.6 17.3 49.9 46.2 93.7 58 93.7 4.4 0 6.4-2 6.4-13.2v-51.6c-1.4-23.8-13.9-25.8-13.9-34.3 0-4.1 3.4-8.1 8.8-8.1h55c7.5 0 10.2 4.1 10.2 12.9v69.6c0 7.5 3.4 10.2 5.4 10.2 4.4 0 8.1-2.7 16.3-10.9 25.1-28.2 43.1-71.6 43.1-71.6 2.4-5.1 6.4-9.8 15.3-9.8h35c10.5 0 12.9 5.4 10.5 12.9-4.4 20.4-47.2 80.8-47.2 80.8-3.7 6.1-5.1 8.8 0 15.6 3.7 5.1 16 15.6 24.1 25.1 14.9 17 26.5 31.2 29.5 41.1 3.6 9.5-1.5 14.6-11.4 14.6z" style="fill:#fff"/>
</svg>

<svg width="1024" height="1024" viewBox="0 0 1024 1024" fill="none" xmlns="http://www.w3.org/2000/svg">
<g clip-path="url(#clip0_3_722)">
<path d="M512 1024C794.77 1024 1024 794.77 1024 512C1024 229.23 794.77 0 512 0C229.23 0 0 229.23 0 512C0 794.77 229.23 1024 512 1024Z" fill="#728DBE"/>
<path d="M585.8 271.5H438.2C303.4 271.5 271.5 303.4 271.5 438.2V585.9C271.5 720.7 303.4 752.6 438.2 752.6H585.9C720.7 752.6 752.6 720.7 752.6 585.9V438.2C752.5 303.4 720.3 271.5 585.8 271.5ZM659.8 614.7H624.8C611.6 614.7 607.5 604.2 583.7 580.1C563 560.1 553.8 557.4 548.7 557.4C541.6 557.4 539.5 559.4 539.5 569.3V600.9C539.5 609.4 536.8 614.5 514.4 614.5C477.4 614.5 436.3 592.1 407.5 550.3C364.1 489.2 352.2 443.4 352.2 433.9C352.2 428.8 354.2 424.1 364.1 424.1H399.1C407.9 424.1 411.3 428.2 414.7 437.7C432 487.6 460.9 531.4 472.7 531.4C477.1 531.4 479.1 529.4 479.1 518.2V466.6C477.7 442.8 465.2 440.8 465.2 432.3C465.2 428.2 468.6 424.2 474 424.2H529C536.5 424.2 539.2 428.3 539.2 437.1V506.7C539.2 514.2 542.6 516.9 544.6 516.9C549 516.9 552.7 514.2 560.9 506C586 477.8 604 434.4 604 434.4C606.4 429.3 610.4 424.6 619.3 424.6H654.3C664.8 424.6 667.2 430 664.8 437.5C660.4 457.9 617.6 518.3 617.6 518.3C613.9 524.4 612.5 527.1 617.6 533.9C621.3 539 633.6 549.5 641.7 559C656.6 576 668.2 590.2 671.2 600.1C674.8 609.6 669.7 614.7 659.8 614.7Z" fill="white"/>
</g>
<defs>
<clipPath id="clip0_3_722">
<rect width="1024" height="1024" fill="white"/>
</clipPath>
</defs>
</svg>
